X: 10332
M: 3/4
L: 1/8
K: G
d>c |\
c>Bc>ed>e | c>Bc>ed>e | g2f2d2 | c>eG2G2 |\
c>Bc>ed>e | c>Bc>ed>e | g2f2d2 | c3"^D.C."z :|


